!!!COM:	Bach, Johann Sebastian
!!!OMV:	O Haupt voll Blut und Wunden
!!!OTL:	O Haupt voll Blut und Wunden
**kern	**fb	**kern	**kern	**kern
*part4	*part4	*part3	*part2	*part1
*staff4	*	*staff3	*staff2	*staff1
*I"Voice	*	*I"Voice	*I"Voice	*I"Voice
*I'V	*	*I'V	*I'V	*I'V
*clefF4	*	*clefGv2	*clefG2	*clefG2
*k[]	*	*k[]	*k[]	*k[]
*M4/4	*	*M4/4	*M4/4	*M4/4
4E	#	4G#X	8eL	4e
.	.	.	8dJ	.
=2	=2	=2	=2	=2
4F	7	4A	8cL	4a
.	6	.	8dJ	.
4Gn	5	4B	8dL	4g
.	6	.	8eJ	.
8AAL	6 5	8cL	8eL	4f
8BBJ	5	8dJ	8dJ	.
4C	9	4G	8dL	4e
.	8	.	8cJ	.
=3	=3	=3	=3	=3
2FF	6 5	8AL	4c	2d
.	.	8G#XJ	.	.
.	4	4A	8BL	.
.	3	.	8AJ	.
4EE;	#	4G#;	4B;	4e;
4E	#	4G#	4e	4b
=4	=4	=4	=4	=4
8AL	.	8AL	4e	4cc
8GnJ	.	8BJ	.	.
8FL	5	4c	4a	4cc
8EJ	.	.	.	.
8DL	6 5	4f	4a	8b
8BBJ	.	.	.	16ccLL
.	.	.	.	16ddJJ
8EL	#	8eL	4g#X	4b
8EEJ	.	8dJ	.	.
=	=	=	=	=
2.AA;	.	2.c;	2.e;	2.a;
=5:|!	=5:|!	=5:|!	=5:|!	=5:|!
4A	8	4e	8aL	4cc
.	7	.	8gnJ	.
=6	=6	=6	=6	=6
4D	6	8dL	4f	8bL
.	5	8cJ	.	8aJ
4E	8	4B	8eL	4g
.	7	.	8dJ	.
8FL	5	8AL	4c	4a
8EJ	.	8GJ	.	.
4D	6	8FL	4f	4b
.	.	8GJ	.	.
=7	=7	=7	=7	=7
!!linebreak:original
8AAL	6	4A	4f	2cc
8BBJ	.	.	.	.
4C	3 5	8GL	8eL	.
.	2 4	8FJ	8dJ	.
4CC;	.	4G;	4e;	4cc;
4C	.	4c	4e	4g
=8	=8	=8	=8	=8
8FL	.	8cL	4f	4a
8EJ	.	8dJ	.	.
8DL	-r6 4 2	4e	8B-XL	4g
8C#XJ	6 5	.	8AJ	.
4D	.	8dL	8AL	8fL
.	.	8c#XJ	8GJ	8eJ
4D	.	8dL	8AL	4f
.	.	8G#XJ	8dJ	.
=9	=9	=9	=9	=9
2.AA;	#	2.A;	2.c#X;	2.e;
4FF#X	6 5	4A	4d	4cc
=10	=10	=10	=10	=10
4GG	.	8GL	4d	8bL
.	.	8AJ	.	8ccJ
8GL	.	4B	4g	4dd
8F#XJ	.	.	.	.
4.E	6	8cL	8gL	4cc
.	.	8dJ	8f#XJ	.
.	5	4e	4g	4b
8D	.	.	.	.
=11	=11	=11	=11	=11
8CL	6 5	4e	4g	2a
8AAJ	.	.	.	.
4D	#	4d	4f#X	.
4GG;	.	4d;	4g;	4b;
8CL	.	4c	4g	4e
8BBJ	.	.	.	.
=12	=12	=12	=12	=12
8AAL	6	8cL	8cL	4f
8BBJ	6 5	8BJ	8dJ	.
[4C	7	8BL	4c	4e
.	6	8AJ	.	.
8CL]	6 4 2	4A	4F	4d
[8BBJ	.	.	.	.
8BBL]	6	8GL	4d	8gL
8AAJ	6 4	8AJ	.	8fJ
=13	=13	=13	=13	=13
!!linebreak:original
4GG#X	6 5	4B	4d	2.e;
4AA	.	4A	4c	.
4EE;	#	4G#X;	4B;	.
=||	=||	=||	=||	=||
*-	*-	*-	*-	*-
!!!system-decoration: s1,s2,s3,s4
